!!!!SEGMENT: pl-wtm--r-1445_stefani-jozef--spiew-placyda-z-operetki-piorun.krn
!!!cenid: 18xx:2461
!!!COM: Stefani, Józef
!!!COM-rismID: pe30024097
!!!CDT: 1800/04/16-1876/03/19
!!!CNT: Polish
!!!OTL: Śpiew Placyda z operetki Piorun
!!!PDT:
!!!AGN: Secular
!!!SMS-siglum: PL-Wtm
!!!SMS-shelfmark: R 1445
!!!SMS-shelfwork: W
!!!SMS-variant:
!!!SMS-altvar:
!!!NIFC-rismSourceID: 1001116462
!!!NIFC-islandoraID: pl-wtm:25730
!!!URL-pdf-islandora: https://repozytorium.nifc.pl/islandora/object/pl-wtm%3A25730/datastream/PDF/view
!!!URL-scan: https://polish.musicsources.pl/pl/lokalizacje/galeria/rekopisy/6261 @EN{Scan on Polish Music Sources Website} @PL{Skany w portalu Dziedzictwo Muzyki Polskiej w otwartym dostępie}
!!!ONB-nifc:
!!!OMD: Allegretto.
!!!AIN: 2 empty
!!!key:
**kern	**kern	**dynam	**kern	**text
*part2	*part2	*part2	*part1	*part1
*staff3	*staff2	*	*staff1	*staff1
*Iempty	*Ipiano	*	*Iempty	*
*	*I"Piano	*	*I"Placyd	*
*clefF4	*clefG2	*	*clefG2	*
*k[f#c#]	*k[f#c#]	*	*k[f#c#]	*
*D:	*D:	*	*D:	*
*M2/4	*M2/4	*	*M2/4	*
*all\right	*all\right	*	*all\right	*
=1	=1	=1	=1	=1
*^	*	*	*	*
!	!	!	!LO:DY:rj	!	!
8.D\L	4ryy	8.dddL 8.ff# 8.dd\	f	2r	.
16d\Jk	.	16dddJk 16ff# 16dd\	.	.	.
4D/	8D\L	8ff#L 8dd\	.	.	.
.	8d\J	8ggJ 8ee\	.	.	.
=2	=2	=2	=2	=2	=2
8.D\L	4ryy	8.aaL 8.ff#\	.	2r	.
16d\Jk	.	16bbJk 16gg\	.	.	.
4D/	8D\L	8aaL 8ff#\	.	.	.
.	8d\J	8ff#J 8dd\	.	.	.
*v	*v	*	*	*	*
=3	=3	=3	=3	=3
!LO:TX:t=P:problem=mixed beam	!	!	!	!
.	(8qff#/	.	.	.
8AA/L	8ee\L)	.	2r	.
8gJ 8c# 8A\	16a\Jk|	.	.	.
.	16bb| 16gg\	.	.	.
!LO:TX:t=P:problem=mixed beam	!	!	!	!
8AA/L	8aa|L 8ff#\	.	.	.
8gJ 8c# 8A\	8gg|J 8ee\	.	.	.
=4	=4	=4	=4	=4
8f# 8d\	8ff# 8dd\	.	2r	.
8r	8r	.	.	.
4r	(16dd\LL	.	.	.
.	32ee\L	.	.	.
.	32ff#\	.	.	.
.	32gg\	.	.	.
.	32aa\	.	.	.
.	32bb\	.	.	.
.	32ccc#\JJJ)	.	.	.
!!LO:LB:g=original
=5	=5	=5	=5	=5
*^	*	*	*	*
8.D\L	4ryy	8.ddd\L	.	2r	.
16d\Jk	.	16dddJk 16ff# 16dd\	.	.	.
4D/	8D\L	8ff#L 8dd\	.	.	.
.	8d\J	8ggJ 8ee\	.	.	.
=6	=6	=6	=6	=6	=6
8.D\L	4ryy	8.aaL 8.ff#\	.	2r	.
16d\Jk	.	16bbJk 16gg\	.	.	.
4D/	8D\L	8aaL 8ff#\	.	.	.
.	8d\J	8ff#J 8dd\	.	.	.
=7	=7	=7	=7	=7	=7
.	.	(8qdd#X/	.	.	.
4E/	8E\L	8ee\L)	.	2r	.
.	8c#J 8A\	8aa'\J	.	.	.
.	.	(8qddd/	.	.	.
4E/	8E\L	8.ccc#L 8.cc#\)	.	.	.
.	8dJ 8G#X\	.	.	.	.
.	.	16bbJk 16b\	.	.	.
*v	*v	*	*	*	*
=8	=8	=8	=8	=8
8c# 8A\	8aa 8a\	.	2r;	.
8r	8r	.	.	.
8A 8E 8AA\	8aa 8cc# 8a\	.	.	.
8r;	8r;	.	.	.
=9	=9	=9	=9	=9
*^	*	*	*	*
!	!	!	!LO:DY:rj	!	!
8.DL 8.DD/	4ryy	8.ddL 8.f# 8.d/	f	8.dd\	Kie-
!	!	!	!LO:DY:rj	!	!
16D/Jk	.	16ddJk 16f# 16d/	p	16dd\	-lich
8DD/L	4DD\	8f#L 8d/	.	8f#/	pró-
8D/J	.	8gJ 8e/	.	8g/	-żny,
!!LO:LB:g=original
=10	=10	=10	=10	=10	=10
8.DD/L	4ryy	8.aL 8.f#/	.	8.a/	pięk-
16D/Jk	.	16bJk 16g/	.	16b/	-nej
8DD/L	4DD\	8aL 8f#/	.	8a/	ba-
8D/J	.	8f#J 8d/	.	16f#/	-si,
.	.	.	.	16f#/	A
=11	=11	=11	=11	=11	=11
.	.	(8qd#X/	.	.	.
4AA/	8AA\L	8e/L)	.	8e/	więc
.	8GJ 8E 8C#\	16A/Jk|	.	16A/	go
.	.	16b| 16g/	.	16b/	na-
4AA/	8AA\L	8aL 8f#'/	.	8a/	-peł-
.	8GJ 8E 8C#\	8gJ 8e'/	.	8g/	-nić
*v	*v	*	*	*	*
=12	=12	=12	=12	=12
8F# 8D\	8f# 8d/	.	8f#/	chciej,
8r	8r	.	8r	.
!	!	!LO:DY:rj	!	!
4r	(16d/LL	f	4r	.
.	32e/L	.	.	.
.	32f#/	.	.	.
.	32g/	.	.	.
.	32a/	.	.	.
.	32b/	.	.	.
.	32cc#/JJJ)	.	.	.
=13	=13	=13	=13	=13
*^	*	*	*	*
8.AL 8.F# 8.D\	4ryy	8.dd\L	p	8.dd\	Szam-
16D\Jk	.	16ddJk 16f# 16d\	.	16dd\	-pan
4DD/	8DD\L	8f#L 8d/	.	8f#/	pa-
.	8D\J	8gJ 8e/	.	8g/	-li,
!!LO:LB:g=original
=14	=14	=14	=14	=14	=14
8.DD/L	4ryy	8.aL 8.f#/	.	8.a/	kie-
16D/Jk	.	16bJk 16g/	.	16b/	-dy
8DD/L	4DD\	8aL 8f#/	.	8a/	ga-
8D/J	.	8f#J 8d/	.	8f#/	-si,
*v	*v	*	*	*	*
=15	=15	=15	=15	=15
.	(8qd#X/	.	.	.
8EL 8EE\	8e/L)	.	8e/	Lej
8c#J 8A 8E\	8a/J	.	8a/	więc
.	(8qdd/	.	8qdd/	.
8EL 8EE\	8.cc#\L)	.	8.cc#\	lej
8dJ 8G#X 8E\	.	.	.	.
.	16b\Jk	.	16b\	więc
=16	=16	=16	=16	=16
8c# 8A\	8a/	.	8a/	lej.
*clefG2	*	*	*	*
(16a/LL	(16aa\LL	.	8r	.
16g#X/JJ	16gg#X\JJ	.	.	.
16a/LL	16aa\LL	.	4r	.
16g#/	16gg#\	.	.	.
16a/	16aa\	.	.	.
16g#/JJ	16gg#\JJ	.	.	.
=17	=17	=17	=17	=17
8a/)	8aa\)	.	2r	.
8r	16r	.	.	.
!	!	!LO:DY:rj	!	!
.	16aa|KL 16a\	f	.	.
4r	8.aa| 8.a\	.	.	.
.	16aa|Jk 16a\	.	.	.
*clefF4	*	*	*	*
!!LO:PB:g=original
=18	=18	=18	=18	=18
*^	*	*	*	*
!	!	!	!LO:DY:rj	!	!
4C#/	8C#\L	8.aaL 8.a\	p	8.a/	Lu-
.	8AJ 8E\	.	.	.	.
.	.	16bbJk 16b\	.	16b/	-bo
4C#/	8C#\L	8aaL 8a\	.	8a/	sro-
.	8AJ 8E\	8eeJ 8e\	.	8e/	-gość
=19	=19	=19	=19	=19	=19
4D/	8D\L	8.aaL 8.a\	.	8.a/	dziew-
.	8AJ 8F#\	.	.	.	.
.	.	16bbJk 16b\	.	16b/	-cząt
4D/	8D\L	8aaL 8a\	.	8a/	zna-
.	8AJ 8F#\	8ff#J 8f#\	.	8f#/	-na
*v	*v	*	*	*	*
=20	=20	=20	=20	=20
8C#/	8r	.	8.d#X/	Ty
8r	8g 8e 8A/	.	.	.
.	.	.	16e/	się
8AA/	8r	.	8b/	za-
8r	8g 8c# 8A/	.	8a/	-wsze
=21	=21	=21	=21	=21
8D 8DD/	8r	.	8.g#X/	z_te-
8r	8f# 8d 8A/	.	.	.
.	.	.	16a/	-go
8D 8DD/	8r	.	8f#/	śmiej
8r	8f# 8d 8A/	.	8r	.
!!LO:LB:g=original
=22	=22	=22	=22	=22
*^	*	*	*	*
!	!	!	!LO:DY:rj	!	!
8.DL 8.DD/	4ryy	8.ddL 8.f# 8.d/	f	8.dd\	Tyl-
!	!	!	!LO:DY:rj	!	!
16D/Jk	.	16ddJk 16f# 16d/	p	16dd\	-ko
8DD/L	4DD\	8f#L 8d/	.	8f#/	w_po-
8D/J	.	8gJ 8e/	.	8g/	-moc
=23	=23	=23	=23	=23	=23
8.DD/L	4ryy	8.aL 8.f#/	.	8.a/	weź
16D/Jk	.	16bJk 16g/	.	16b/	szam-
8DD/L	4DD\	8aL 8f#/	.	8a/	-pa-
8D/J	.	8f#J 8d/	.	8f#/	-na
*v	*v	*	*	*	*
=24	=24	=24	=24	=24
.	(8qd#X/	.	.	.
8EL 8EE\	8e/L)	.	8e/	Lej
8c#J 8A 8E\	8a/J	.	8a/	go
.	(8qdd/	.	(8qdd/	.
8EL 8EE\	8.cc#/L)	.	8.cc#/)	Lej
8dJ 8G#X 8E\	.	.	.	.
.	16b/Jk	.	16b/	go
=25	=25	=25	=25	=25
8c# 8A\	8a/	.	8a/	lej,
8r	16r	.	8r	.
!	!	!LO:DY:rj	!	!
.	16aaKL 16a\	f	.	.
4r	8.aa 8.a\	.	4r	.
.	16aaJk 16a\	.	.	.
!!LO:LB:g=original
=26	=26	=26	=26	=26
*^	*	*	*	*
4C#/	8C#\L	8.aaL 8.a\	.	8.a/	Ser-
.	8AJ 8E\	.	.	.	.
.	.	16bbJk 16b\	.	16b/	-ce
4C#/	8C#\L	8aaL 8a\	.	8a/	prze-
.	8AJ 8E\	8eeJ 8e\	.	8e/	-cie
=27	=27	=27	=27	=27	=27
4D/	8D\L	8.aaL 8.a\	.	8.a/	nie
.	8AJ 8F#\	.	.	.	.
.	.	16bbJk 16b\	.	16b/	iest
4D/	8D\L	8aaL 8a\	.	8a/	ska-
.	8AJ 8F#\	8ff#J 8f#\	.	8f#/	-łą
*v	*v	*	*	*	*
=28	=28	=28	=28	=28
8C#/	8r	.	8.d#X/	A
8r	8g 8e 8A/	.	.	.
.	.	.	16e/	więc
8AA/	8r	.	8b/	go
8r	8g 8e 8A/	.	8a/	po-
=29	=29	=29	=29	=29
8D 8DD/	8r	.	8.g#X/	-ko-
8r	8f# 8d 8A/	.	.	.
.	.	.	16a/	-nać
8D 8DD/	8r	.	8f#/	lzej
8r	8f# 8d 8A/	.	8r	.
!!LO:LB:g=original
=30	=30	=30	=30	=30
*^	*	*	*	*
!	!	!	!LO:DY:rj	!	!
8.DL 8.DD/	4ryy	8.ddL 8.f# 8.d/	f	8.dd\	Nie-
!	!	!	!LO:DY:rj	!	!
16D/Jk	.	16ddJk 16f# 16d/	p	16dd\	-raz
8DD/L	4DD\	8f#L 8d/	.	8f#/	ska-
8D/J	.	8gJ 8e/	.	8g/	-ły
*v	*v	*	*	*	*
=31	=31	=31	=31	=31
8.DD/L	8.aL 8.f#/	.	8.a/	kru-
16D/Jk	16bJk 16g/	.	16b/	-szą
8DD/L	8aL 8f#/	.	8a/	śmia-
8D/J	8f#J 8d/	.	8f#/	-ło
=32	=32	=32	=32	=32
!	!	!LO:DY:rj	!	!
8.G\L	8.eL 8.B/	f	8.e/	Lej
16E\Jk	16bJk 16g/	.	16b/	więc
!LO:TX:t=P:problem=mixed beam	!	!	!	!
8A\L	8aL 8f#/	.	8a/	lej
8AA/J	8cc#J 8a 8g 8e/	.	8cc#\	więc
=33	=33	=33	=33	=33
8D\	8dd 8a 8f# 8d/	.	8dd\	lej.
8r	8r	.	8r	.
!	!	!LO:DY:rj	!	!
4d 4A 4F# 4D\	4ddd 4aa 4ff# 4dd\	ff	4r	.
==	==	==	==	==
*-	*-	*-	*-	*-
!!!system-decoration: s1{(s2,s3)}
!!!RDF**kern: | = vertical stroke
!!!ENC: Andrzej Kubiczek
!!!END: 2021-06-28
!!!ENC: Marcin Jachim
!!!END: 2021-06-22
!!!YEC: Copyright 2022 Narodowy Instytut Fryderyka Chopina (https://polishscores.org)
!!!YEM: Licence CC BY 4.0 (https://creativecommons.org/licenses/by/4.0)
